chrome/icons/vertical-tabs.svg

<svg width="16" height="16" viewBox="0 0 16 16" fill="none" xmlns="http://www.w3.org/2000/svg">
<g clip-path="url(#clip0_700_4)">
<path d="M2.79464 16C2.41964 16 2.0625 15.9241 1.72321 15.7723C1.38393 15.6205 1.0878 15.4182 0.834821 15.1652C0.581845 14.9122 0.379464 14.6161 0.227679 14.2768C0.0758929 13.9375 0 13.5804 0 13.2054V2.79464C0 2.41964 0.0758929 2.0625 0.227679 1.72321C0.379464 1.38393 0.581845 1.0878 0.834821 0.834821C1.0878 0.581846 1.38393 0.379466 1.72321 0.227679C2.0625 0.0758946 2.41964 1.78571e-06 2.79464 0H13.2054C13.5804 1.78571e-06 13.9375 0.0758946 14.2768 0.227679C14.6161 0.379466 14.9122 0.581846 15.1652 0.834821C15.4182 1.0878 15.6205 1.38393 15.7723 1.72321C15.9241 2.0625 16 2.41964 16 2.79464V13.2054C16 13.5804 15.9241 13.9375 15.7723 14.2768C15.6205 14.6161 15.4182 14.9122 15.1652 15.1652C14.9122 15.4182 14.6161 15.6205 14.2768 15.7723C13.9375 15.9241 13.5804 16 13.2054 16H2.79464ZM1.14286 3.42857H14.8571V2.85714C14.8571 2.625 14.8125 2.40477 14.7232 2.19643C14.6339 1.98809 14.5104 1.80505 14.3527 1.64732C14.1949 1.48959 14.0119 1.36607 13.8036 1.27679C13.5952 1.1875 13.375 1.14286 13.1429 1.14286H2.85714C2.625 1.14286 2.40477 1.1875 2.19643 1.27679C1.98809 1.36607 1.80505 1.48959 1.64732 1.64732C1.48959 1.80505 1.36607 1.98809 1.27679 2.19643C1.1875 2.40477 1.14286 2.625 1.14286 2.85714V3.42857ZM13.1429 14.8571C13.375 14.8571 13.5952 14.8125 13.8036 14.7232C14.0119 14.6339 14.1949 14.5104 14.3527 14.3527C14.5104 14.1949 14.6339 14.0119 14.7232 13.8036C14.8125 13.5952 14.8571 13.375 14.8571 13.1429V4.57143H1.14286V13.1429C1.14286 13.375 1.1875 13.5952 1.27679 13.8036C1.36607 14.0119 1.48959 14.1949 1.64732 14.3527C1.80505 14.5104 1.98809 14.6339 2.19643 14.7232C2.40477 14.8125 2.625 14.8571 2.85714 14.8571H13.1429Z" fill="context-fill"/>
<rect x="1" y="4" width="4" height="11" fill="context-fill"/>
</g>
<defs>
<clipPath id="clip0_700_4">
<rect width="16" height="16" fill="none"/>
</clipPath>
</defs>
</svg>

<svg xmlns="http://www.w3.org/2000/svg" width="16" height="16" fill="none" viewBox="0 0 16 16"><g fill="context-fill" clip-path="url(#a)"><path d="M2.795 16q-.562 0-1.072-.228a3 3 0 0 1-.888-.607 3 3 0 0 1-.607-.888A2.6 2.6 0 0 1 0 13.205V2.795q0-.562.228-1.072.227-.51.607-.888.38-.38.888-.607Q2.233 0 2.795 0h10.41q.562 0 1.072.228.51.227.888.607.38.38.607.888.228.51.228 1.072v10.41q0 .562-.228 1.072t-.607.888q-.38.38-.888.607-.51.228-1.072.228zM1.143 3.429h13.714v-.572a1.7 1.7 0 0 0-.134-.66 1.74 1.74 0 0 0-.92-.92 1.7 1.7 0 0 0-.66-.134H2.857a1.7 1.7 0 0 0-.66.134 1.74 1.74 0 0 0-.92.92 1.7 1.7 0 0 0-.134.66zm12 11.428q.348 0 .66-.134a1.74 1.74 0 0 0 .92-.92 1.7 1.7 0 0 0 .134-.66V4.57H1.143v8.572q0 .348.134.66a1.74 1.74 0 0 0 .92.92q.312.135.66.134z"/><path d="M1 4h4v11H1z"/></g><defs><clipPath id="a"><path d="M0 0h16v16H0z"/></clipPath></defs></svg>
